img/results.svg

<svg fill="none" height="16" viewBox="0 0 16 16" width="16" xmlns="http://www.w3.org/2000/svg"><path clip-rule="evenodd" d="m11.5222 1.00388h3.0404l-.0019-.00095c.0802-.00018.159.02174.2276.06335s.1245.10132.1616.1726c.037.07127.0538.15137.0485.23156-.0052.0802-.0324.1574-.0785.22316l-3.0441 4.35678c-.8289-.77695-1.8715-1.28659-2.99275-1.46288l1.89105-3.15815c.0774-.12965.187-.237.3181-.31156.1311-.07457.2793-.11381.43-.11391zm-4.40681 3.58357-1.88822-3.15816c-.07754-.12952-.18716-.23676-.31825-.3113-.13109-.07455-.27918-.11388-.42991-.11417h-3.0404c-.11617 0-.22758.04619-.30981.12841s-.12855.19375-.1288.31016c.00021.09004.02831.1778.08043.25116l3.04787 4.35772c.82665-.7771 1.86742-1.28714 2.98709-1.46382zm.89051.76655c-.95222 0-1.88305.28297-2.67479.81308s-1.40883 1.28356-1.77323 2.16511c-.3644.88154-.45973 1.85161-.27396 2.78741.18577.9359.64429 1.7955 1.31761 2.4702s1.53118 1.1341 2.4651 1.3203c.93392.1861 1.90197.0906 2.78171-.2745.87976-.3652 1.63166-.9835 2.16066-1.7769s.8114-1.7261.8114-2.6803c0-.63354-.1245-1.26089-.3665-1.84621-.2419-.58533-.5966-1.11717-1.0436-1.56515-.4471-.44799-.9778-.80334-1.56196-1.04579-.58412-.24245-1.21019-.36725-1.84244-.36725zm2.5307 4.31085-1.03808 1.01395.24408 1.4311c.00727.0406.00649.0822-.00232.1225-.0088.0403-.02543.0785-.04897.1124-.02354.0338-.05351.0627-.08819.0849-.03469.0223-.07342.0375-.11396.0447-.0706.0138-.14379.0022-.2067-.0328l-1.28309-.6757-1.28313.6757c-.07245.0395-.15746.0488-.23672.026-.07925-.0228-.14639-.0759-.18694-.1478-.03479-.0634-.04637-.137-.03273-.2081l.24596-1.4319-1.03717-1.014c-.04195-.04101-.0716-.09294-.08565-.14995-.01404-.05701-.0119-.11683.0062-.17268.01809-.05586.0514-.10555.09618-.14343.04478-.03787.09924-.06243.15723-.07092l1.43371-.20901.64436-1.3026c.01821-.03712.04356-.07026.0746-.09753.03104-.02726.06715-.04811.10626-.06134.03911-.01324.08046-.01861.12164-.01579s.08138.01376.11833.0322c.06143.03094.11128.0809.14216.14246l.64342 1.3026 1.43462.20901c.0824.0125.1565.05718.2061.12426.0496.06709.0706.15111.0586.23371-.011.06853-.0438.13166-.0935.17995z" fill="#408053" fill-rule="evenodd"/></svg>

<svg width="16" height="16" viewBox="0 0 16 16" fill="none" xmlns="http://www.w3.org/2000/svg">
<path fill-rule="evenodd" clip-rule="evenodd" d="M11.5222 1.00388H14.5626L14.5607 1.00293C14.6409 1.00275 14.7197 1.02467 14.7883 1.06628C14.8569 1.10789 14.9128 1.1676 14.9499 1.23888C14.9869 1.31015 15.0037 1.39025 14.9984 1.47044C14.9932 1.55064 14.966 1.62784 14.9199 1.6936L11.8758 6.05038C11.0469 5.27343 10.0043 4.76379 8.88305 4.5875L10.7741 1.42935C10.8515 1.2997 10.9611 1.19235 11.0922 1.11779C11.2233 1.04322 11.3715 1.00398 11.5222 1.00388ZM7.11539 4.58745L5.22717 1.42929C5.14963 1.29977 5.04001 1.19253 4.90892 1.11799C4.77783 1.04344 4.62974 1.00411 4.47901 1.00382H1.43861C1.32244 1.00382 1.21103 1.05001 1.1288 1.13223C1.04657 1.21445 1.00025 1.32598 1 1.44239C1.00021 1.53243 1.02831 1.62019 1.08043 1.69355L4.1283 6.05127C4.95495 5.27417 5.99572 4.76413 7.11539 4.58745ZM8.0059 5.354C7.05368 5.354 6.12285 5.63697 5.33111 6.16708C4.53937 6.69719 3.92228 7.45064 3.55788 8.33219C3.19348 9.21373 3.09815 10.1838 3.28392 11.1196C3.46969 12.0555 3.92821 12.9151 4.60153 13.5898C5.27485 14.2645 6.13271 14.7239 7.06663 14.9101C8.00055 15.0962 8.9686 15.0007 9.84834 14.6356C10.7281 14.2704 11.48 13.6521 12.009 12.8587C12.538 12.0653 12.8204 11.1326 12.8204 10.1784C12.8204 9.54486 12.6959 8.91751 12.4539 8.33219C12.212 7.74686 11.8573 7.21502 11.4103 6.76704C10.9632 6.31905 10.4325 5.9637 9.84834 5.72125C9.26422 5.4788 8.63815 5.354 8.0059 5.354ZM10.5366 9.66485L9.49852 10.6788L9.7426 12.1099C9.74987 12.1505 9.74909 12.1921 9.74028 12.2324C9.73148 12.2727 9.71485 12.3109 9.69131 12.3448C9.66777 12.3786 9.6378 12.4075 9.60312 12.4297C9.56843 12.452 9.5297 12.4672 9.48916 12.4744C9.41856 12.4882 9.34537 12.4766 9.28246 12.4416L7.99937 11.7659L6.71624 12.4416C6.64379 12.4811 6.55878 12.4904 6.47952 12.4676C6.40027 12.4448 6.33313 12.3917 6.29258 12.3198C6.25779 12.2564 6.24621 12.1828 6.25985 12.1117L6.50581 10.6798L5.46864 9.6658C5.42669 9.62479 5.39704 9.57286 5.38299 9.51585C5.36895 9.45884 5.37109 9.39902 5.38919 9.34317C5.40728 9.28731 5.44059 9.23762 5.48537 9.19974C5.53015 9.16187 5.58461 9.13731 5.6426 9.12882L7.07631 8.91981L7.72067 7.61721C7.73888 7.58009 7.76423 7.54695 7.79527 7.51968C7.82631 7.49242 7.86242 7.47157 7.90153 7.45834C7.94064 7.4451 7.98199 7.43973 8.02317 7.44255C8.06435 7.44537 8.10455 7.45631 8.1415 7.47475C8.20293 7.50569 8.25278 7.55565 8.28366 7.61721L8.92708 8.91981L10.3617 9.12882C10.4441 9.14132 10.5182 9.186 10.5678 9.25308C10.6174 9.32017 10.6384 9.40419 10.6264 9.48679C10.6154 9.55532 10.5826 9.61845 10.5329 9.66674L10.5366 9.66485Z" fill="#408053"/>
</svg>
